!!!!SEGMENT: Gom2005-Aspice_Domine.krn
!!!id: Gom2005
!!!AGN: Motet
!!!SCT: Schmidt-Görg (1961)
!!!voices: 4
!!!COM: Nicolas Gombert
!!!OTL: Aspice Domine
**kern	**kern	**kern	**kern
*part4	*part3	*part2	*part1
*staff4	*staff3	*staff2	*staff1
*I"Bassus	*I"Tenor	*I"Altus	*I"Superius
*I'B	*I'T	*I'A	*I'S
*clefF4	*clefGv2	*clefGv2	*clefG2
*k[b-]	*k[b-]	*k[b-]	*k[b-]
*F:	*F:	*F:	*F:
*M2/1	*M2/1	*M2/1	*M2/1
*met(C|)	*met(C|)	*met(C|)	*met(C|)
!!Section: Prima Pars: Aspice Domine
!!!OMD: Prima Pars: Aspice Domine
=1	=1	=1	=1
0r	0r	0r	0a
=2	=2	=2	=2
0r	0r	0r	1g
.	.	.	1f
=3	=3	=3	=3
0r	0r	1r	1.b-y
.	.	[1d	.
.	.	.	2a
=4	=4	=4	=4
0r	0r	1d]	0a
.	.	1c	.
=5	=5	=5	=5
0r	0r	1B-y	1d
.	.	[1e-i	[1g
=6	=6	=6	=6
0r	0r	2e-]	2g]
.	.	2d	2f
.	.	[1d	2d
.	.	.	2f
=7	=7	=7	=7
0r	0A	2d]	2.e
.	.	4c	.
.	.	4B-y	4d
.	.	1c	2e
.	.	.	2f
=8	=8	=8	=8
0r	1G	[0d	2B-y
.	.	.	1b-y
.	1F	.	.
.	.	.	[2a
=9	=9	=9	=9
1r	1.B-y	0d]	2a]
.	.	.	1g
[1D	.	.	.
.	2A	.	[2f
=10	=10	=10	=10
1D]	0A	0r	2f]
.	.	.	4e
.	.	.	4d
1C	.	.	1e
=11	=11	=11	=11
0BB-y	1r	0d	2f
.	.	.	1g
.	1D	.	.
.	.	.	2f#i
=12	=12	=12	=12
1.E-i	1.G	1c	1g
.	.	[1B-y	1r
2D	2F	.	.
=13	=13	=13	=13
1D	2D	1B-]	1d
.	2F	.	.
1r	4E-i	[1e-i	[1g
.	4F	.	.
.	4G	.	.
.	4A	.	.
=14	=14	=14	=14
1r	1.B-y	2e-]	2g]
.	.	2d	2f
1D	.	1d	2d
.	2A	.	2f
=15	=15	=15	=15
1.G	1B-y	2r	2e
.	.	2G	2d
.	1A	1c	2e
2F	.	.	[2f
=16	=16	=16	=16
2D	2r	2B-y	4f]
.	.	.	4e
2F	2D	2A	1d
1E	[1G	2B-y	.
.	.	4A	2c#i
.	.	4G	.
=17	=17	=17	=17
0D	2G]	2A	1d
.	2F	2A	.
.	2D	[1d	2r
.	2F	.	2d
=18	=18	=18	=18
0r	1E	2d]	1.g
.	.	2c	.
.	2D	2A	.
.	2A	2c	2f
=19	=19	=19	=19
0r	1.d	1B-y	4d
.	.	.	4e
.	.	.	4f
.	.	.	4d
.	.	1A	1e
.	2c	.	.
=20	=20	=20	=20
1D	1A	1.d	1f
[1G	1B-y	.	1d
.	.	4c	.
.	.	4B-y	.
=21	=21	=21	=21
2G]	1A	1c	2e
2F	.	.	2.f
2D	2r	1d	.
.	.	.	4g
2F	2A	.	[2a
=22	=22	=22	=22
1E	1.B-y	1r	4a]
.	.	.	4g
.	.	.	1g
1D	.	1d	.
.	2A	.	2f#i
=23	=23	=23	=23
0GG	2G	1.e	0g
.	1c	.	.
.	2B-y	2d	.
=24	=24	=24	=24
0r	2A	2c	2r
.	4G	1f	2a
.	4F	.	.
.	[1G	.	[1b-y
.	.	2e	.
=25	=25	=25	=25
1D	2G]	1d	2b-]
.	2F#i	.	2a
[1E	1G	1r	2g
.	.	.	[2cc
=26	=26	=26	=26
2E]	1F	2r	2cc]
2D	.	2d	2b-y
1C	2r	[1e	2a
.	2G	.	2g
=27	=27	=27	=27
1.F	1.A	2e]	1f
.	.	2d	.
.	.	1c	2r
2E	2G	.	2g
=28	=28	=28	=28
1D	1F	1.f	1.a
1r	[1B-y	.	.
.	.	2e	2g
=29	=29	=29	=29
0r	2B-]	2d	1f
.	2A	2c	.
.	2.G	2e	1b-y
.	.	[2d	.
.	4F	.	.
=30	=30	=30	=30
1AA	1E	2d]	2.a
.	.	2c#i	.
.	.	.	4g
[1BB-y	2r	1d	2f
.	2D	.	4e
.	.	.	4d
=31	=31	=31	=31
2BB-]	1.E	2r	1c
2AA	.	2A	.
1GG	.	[1B-y	2r
.	2D	.	2d
=32	=32	=32	=32
1.C	1C	2B-]	1.e
.	.	2A	.
.	2r	1G	.
2BB-y	2D	.	2d
=33	=33	=33	=33
[0AA	2E	0A	2c
.	1D	.	1f
.	2C	.	[2e
=34	=34	=34	=34
0AA]	1F	2.A	4e]
.	.	.	4d
.	.	.	1d
.	.	4G	.
.	1E	1A	.
.	.	.	2c#i
=35	=35	=35	=35
1A	[0D	0F	1d
2B-y	.	.	2r
[2A	.	.	2a
=36	=36	=36	=36
4A]	1D]	1r	1.b-y
4G	.	.	.
1G	.	.	.
.	2r	1d	.
2F	2A	.	[2a
=37	=37	=37	=37
1.G	1.B-y	1.e	4a]
.	.	.	4g
.	.	.	1g
2D	[2A	[2d	2f#i
=38	=38	=38	=38
1.E	2A]	4d]	1g
.	.	4c	.
.	1G	1c	.
.	.	.	2r
[2D	2F	2B-y	2dd
=39	=39	=39	=39
4D]	[0G	1c	1.ee
4C	.	.	.
1C	.	.	.
.	.	2r	.
2BB-y	.	2d	[2dd
=40	=40	=40	=40
2.C	1G]	1.e	4dd]
.	.	.	4cc
.	.	.	1cc
4BB-y	.	.	.
1GG	2r	.	.
.	2d	2d	2b-y
=41	=41	=41	=41
1r	1.e	2.c	2a
.	.	.	1g
.	.	4B-y	.
1D	.	2A	.
.	[2d	[2B-y	2f
=42	=42	=42	=42
1.E	4d]	4B-]	1g
.	4c	4A	.
.	1c	1G	.
.	.	.	1r
2D	2d	2F	.
=43	=43	=43	=43
2C	2e	0G	1r
2BB-y	1d	.	.
2.E-i	.	.	1g
.	2c	.	.
4D	.	.	.
=44	=44	=44	=44
[0BB-y	[0d	1r	1f
.	.	1G	[1b-y
=45	=45	=45	=45
0BB-]	0d_	1F	2b-]
.	.	.	2a
.	.	[1B-y	2g
.	.	.	2f
=46	=46	=46	=46
1r	0d]	2B-]	2g
.	.	2B-y	4f
.	.	.	4e
1G	.	1B-y	4d
.	.	.	4B-y
.	.	.	[2b-y
=47	=47	=47	=47
1F	1r	1c	2b-]
.	.	.	2a
[1B-y	1G	1d	2b-y
.	.	.	[2dd
=48	=48	=48	=48
2B-]	1F	0r	2dd]
2A	.	.	2cc
2G	[1B-y	.	2b-y
2F	.	.	2a
=49	=49	=49	=49
2E-X	1B-]	1r	2g
2D	.	.	2f
2.E-i	1B-y	1G	1e
4D	.	.	.
=50	=50	=50	=50
2BB-y	1B-y	2F	1d
1G	.	1B-y	.
.	1c	.	1r
2F	.	2A	.
=51	=51	=51	=51
1.B-y	0d	4G	1g
.	.	4A	.
.	.	4B-y	.
.	.	4c	.
.	.	4d	1f
.	.	4e	.
2A	.	4f	.
.	.	4d	.
=52	=52	=52	=52
2.G	0r	2e	0b-y
.	.	2d	.
4F	.	.	.
2E-X	.	2g	.
2D	.	2f	.
=53	=53	=53	=53
2.E-i	1G	1e	0b-y
4D	.	.	.
1BB-y	1F	1d	.
=54	=54	=54	=54
1G	1.B-y	0r	1b-y
1F	.	.	1cc
.	2A	.	.
=55	=55	=55	=55
1.B-y	2G	2r	0dd
.	4F	1G	.
.	4E	.	.
.	2.D	.	.
2A	.	2F	.
.	4F	.	.
=56	=56	=56	=56
2G	2E	1.B-y	2r
2F	2D	.	2dd
2E	2G	.	2b-y
2D	2F	2B-y	[2dd
=57	=57	=57	=57
2.E-i	1G	1B-y	4dd]
.	.	.	4cc
.	.	.	1b-y
4D	.	.	.
1C	1E	1c	.
.	.	.	2a
=58	=58	=58	=58
1BB-y	1F	1d	0b-y
2.E-i	1G	2r	.
.	.	[2e	.
4D	.	.	.
=59	=59	=59	=59
0BB-y	[0F	2e]	2r
.	.	4d	1b-y
.	.	4c	.
.	.	2.d	.
.	.	.	4a
.	.	4e	4g
=60	=60	=60	=60
0r	1F]	1c	2.a
.	.	.	4b-y
.	2r	2B-y	1g
.	[2B-y	[2d	.
=61	=61	=61	=61
0r	2B-]	2d]	2.f
.	4A	4c	.
.	4G	4B-y	4e
.	2A	2c	1f
.	2B-y	2d	.
=62	=62	=62	=62
1r	1G	1B-y	2e
.	.	.	2.d
[1D	1F	2.A	.
.	.	.	4c
.	.	.	4d
.	.	4G	4e
=63	=63	=63	=63
2D]	0r	2A	4f
.	.	.	4d
4C	.	2B-y	1g
4BB-y	.	.	.
2C	.	1A	.
2D	.	.	4f
.	.	.	4e
=64	=64	=64	=64
1BB-y	2r	2r	2f
.	1G	1B-y	4e
.	.	.	4d
1C	.	.	2e
.	4F	2A	2c
.	4E	.	.
=65	=65	=65	=65
2BB-y	2F	1B-y	1d
2GG	2G	.	.
2.AA	2E	2A	1c
.	[2A	[2c	.
4BB-y	.	.	.
=66	=66	=66	=66
2C	4A]	2c]	1r
.	4G	.	.
1D	2F	4B-y	.
.	.	4A	.
.	1E	2B-y	[1g
2C	.	2c	.
=67	=67	=67	=67
1D	2D	2A	2g]
.	1d	1B-y	4f
.	.	.	4e
1r	.	.	2f
.	4c	4A	2g
.	4B-y	4G	.
=68	=68	=68	=68
2r	2c	1A	2e
1D	2d	.	1f
.	2B-y	2r	.
4C	[2c	[2A	4e
4BB-y	.	.	4d
=69	=69	=69	=69
2C	2c]	2A]	2e
2D	4B-y	4G	2f
.	4A	4F	.
1BB-y	4B-y	1G	2.d
.	4A	.	.
.	[2d	.	.
.	.	.	4e
=70	=70	=70	=70
1AA	2d]	1A	4f
.	.	.	4g
.	4c	.	1a
.	4B-y	.	.
1r	2c	1F	.
.	2d	.	4g
.	.	.	4f
=71	=71	=71	=71
1r	1B-y	2E	1g
.	.	1G	.
[1D	1A	.	1a
.	.	4F	.
.	.	4E	.
=72	=72	=72	=72
2D]	2r	2.F	1d
4C	1A	.	.
4BB-y	.	4G	.
2C	.	2E	2r
2D	4G	[2F	[2dd
.	4F	.	.
=73	=73	=73	=73
1BB-y	1G	2F]	2dd]
.	.	4E	4cc
.	.	4D	4b-y
2AA	1A	2E	2cc
2D	.	2F	2dd
=74	=74	=74	=74
2E	2r	2G	2b-y
2F	1d	2A	2.a
1G	.	1B-y	.
.	.	.	4f
.	4c	.	2g
.	4B-y	.	.
=75	=75	=75	=75
2F	2c	1A	2a
2D	2d	.	2f
2E	2.B-y	1G	2g
[2G	.	.	[2b-y
.	4A	.	.
=76	=76	=76	=76
2G]	2G	1d	2b-]
2F	2A	.	1a
2.G	2.B-y	1e	.
.	.	.	2g
4F	4A	.	.
=77	=77	=77	=77
0D	1F	1d	2b-y
.	.	.	4a
.	.	.	4g
.	[1A	2r	1f
.	.	[2d	.
=78	=78	=78	=78
1r	1A]	2d]	2.e
.	.	2c	.
.	.	.	4f
1E	[1G	2B-y	1g
.	.	[2c	.
=79	=79	=79	=79
1D	2G]	2c]	0r
.	2F	2B-y	.
2C	2E	4A	.
.	.	4G	.
2D	[2F	[2B-y	.
=80	=80	=80	=80
1C	2F]	2B-]	0r
.	2E	2A	.
2BB-y	2D	4G	.
.	.	4F	.
[2C	2E	[2A	.
=81	=81	=81	=81
2C]	1D	4A]	1dd
.	.	4G	.
2BB-y	.	1G	.
1AA	1r	.	1cc
.	.	2F#i	.
=82	=82	=82	=82
0GG	0d	0G	2b-y
.	.	.	1cc
.	.	.	2b-y
=83	=83	=83	=83
0r	2c	1r	2a
.	2B-y	.	1b-y
.	[1c	[1e	.
.	.	.	2a
=84	=84	=84	=84
0G	1c]	1e]	1g
.	1B-y	[1d	1r
=85	=85	=85	=85
1F	2.A	2d]	1a
.	.	2c	.
.	8GL	.	.
.	8AJ	.	.
2E	2B-y	2e	2g
2F	[2A	[2d	2f
=86	=86	=86	=86
1E	2A]	2d]	1g
.	2G	2c	.
2D	2A	2d	2f
2E	[2G	[2c	2e
=87	=87	=87	=87
1D	2G]	2c]	1f
.	2F	2B-y	.
2C	2G	2c	2e
2D	[2F	[2B-y	2d
=88	=88	=88	=88
2.C	4F]	4B-]	2e
.	4E	4A	.
.	1E	1A	4d
4D	.	.	4c
1BB-y	.	.	1d
.	2D	2G	.
=89	=89	=89	=89
[0AA	1E	[0A	0c
.	2r	.	.
.	2E	.	.
=90	=90	=90	=90
0AA]	2F	0A_	2r
.	2E	.	2e
.	2.A	.	2f
.	.	.	2e
.	4G	.	.
=91	=91	=91	=91
1r	2F	0A]	2.a
.	2E	.	.
.	.	.	4g
2r	2D	.	2f
2AA	2C	.	[2e
=92	=92	=92	=92
1BB-y	1D	1r	4e]
.	.	.	4d
.	.	.	1d
1AA	1E	1A	.
.	.	.	2c#i
=93	=93	=93	=93
2.D	0D	2B-y	[0d
.	.	2A	.
4C	.	.	.
2BB-y	.	2.d	.
2AA	.	.	.
.	.	8cL	.
.	.	8B-yJ	.
=94	=94	=94	=94
2GG	2r	4A	0d]
.	.	4G	.
2D	2A	2F	.
2GG	2B-y	2G	.
2D	2F	[2A	.
=95	=95	=95	=95
1E	1G	4A]	1r
.	.	4G	.
.	.	1G	.
1D	1A	.	1a
.	.	2F#i	.
=96	=96	=96	=96
0r	0r	2G	2b-y
.	.	2d	2f
.	.	2e-i	1g
.	.	2B-y	.
=97	=97	=97	=97
1r	1A	1c	1a
1D	2B-y	1d	2f
.	2F	.	2a
=98	=98	=98	=98
2E-i	1G	2B-y	2.g
2BB-y	.	2d	.
.	.	.	4f
1C	2A	2.c	1e
.	[2G	.	.
.	.	4B-y	.
=99	=99	=99	=99
1D	2G]	1A	2d
.	2F	.	2a
1r	2G	1r	2b-y
.	2d	.	2f
=100	=100	=100	=100
1r	2e-i	2r	1g
.	2B-y	2d	.
1A	1c	2e	2.a
.	.	[2f	.
.	.	.	4g
=101	=101	=101	=101
2B-y	0d	4f]	2f
.	.	4e	.
2F	.	4d	2a
.	.	4c	.
1G	.	4B-y	2.g
.	.	4A	.
.	.	[2d	.
.	.	.	4f
=102	=102	=102	=102
1A	2r	2d]	1e
.	2A	2c#i	.
2r	2B-y	1d	2d
2D	2F	.	2a
=103	=103	=103	=103
2E-X	1G	2B-y	4g
.	.	.	4a
2BB-y	.	2d	2b-y
1C	[1A	4c	2a
.	.	4d	.
.	.	2e	[2g
=104	=104	=104	=104
1D	1A]	4d	2g]
.	.	4c	.
.	.	2d	2f
1r	1E	2c	4g
.	.	.	4f
.	.	2B-y	4e
.	.	.	4d
=105	=105	=105	=105
1AA	2F	3.A	3.c
.	2C	6B-y	6d
.	.	3c	3e
2BB-y	1D	3.F	3.d
2FF	.	6G	6e
.	.	3A	3f
=106	=106	=106	=106
2GG	1E	3.G	2e
2GG	.	6A	1d
.	.	3B-y	.
1AA	1E	3.A	.
.	.	6G	2c#i
.	.	3A	.
=	=	=	=
00DD	00D	00F	00d
=||	=||	=||	=||
*M2/1	*M2/1	*M2/1	*M2/1
*met(C|)	*met(C|)	*met(C|)	*met(C|)
!!Section: Secunda Pars: Muro tuo
!!!OMD: Secunda Pars: Muro tuo
0r	0r	0d	0r
=107	=107	=107	=107
0r	0r	1d	0r
.	.	1G	.
=108	=108	=108	=108
0r	0r	1d	0a
.	.	2r	.
.	.	2c	.
=109	=109	=109	=109
0r	0r	2d	1a
.	.	1f	.
.	.	.	1d
.	.	4e	.
.	.	4d	.
=110	=110	=110	=110
0r	0r	2c	1a
.	.	2d	.
.	.	1B-y	2r
.	.	.	2g
=111	=111	=111	=111
0r	0r	2.A	2a
.	.	.	1cc
.	.	4B-y	.
.	.	2c	.
.	.	[2d	4b-y
.	.	.	4a
=112	=112	=112	=112
0D	0r	4d]	2b-y
.	.	4c	.
.	.	2A	1a
.	.	[1B-y	.
.	.	.	[2g
=113	=113	=113	=113
1D	0r	2B-]	4g]
.	.	.	4f
.	.	2A	1f
1GG	.	1B-y	.
.	.	.	2e
=114	=114	=114	=114
1D	0A	2A	2f
.	.	4G	4e
.	.	4F	4d
2r	.	1c	1e
2C	.	.	.
=115	=115	=115	=115
2D	1A	2.F	2d
1F	.	.	2c
.	.	4G	.
.	1D	4A	2d
.	.	4B-y	.
4E	.	[2A	2f
4D	.	.	.
=116	=116	=116	=116
2C	1A	4A]	2e
.	.	4G	.
2D	.	4F	1f
.	.	4E	.
1BB-y	2r	1D	.
.	2G	.	4e
.	.	.	4d
=117	=117	=117	=117
0AA	2A	1F	1c
.	1c	.	.
.	.	1E	1r
.	4B-y	.	.
.	4A	.	.
=118	=118	=118	=118
1C	2G	1r	1e
.	2A	.	.
2D	2.F	[1A	2f
[2F	.	.	[2a
.	4G	.	.
=119	=119	=119	=119
2F]	4A	1A]	2a]
.	4B-y	.	.
4E	2.c	.	4g
4D	.	.	4f
2C	.	1A	2e
.	4B-y	.	.
2D	[2A	.	[2f
=120	=120	=120	=120
1BB-y	4A]	1D	4f]
.	4F	.	4e
.	2G	.	1d
1AA	1E	1A	.
.	.	.	2c#i
=121	=121	=121	=121
2BB-y	2r	1r	2d
2AA	2C	.	1f
1BB-y	1D	2r	.
.	.	2G	4e
.	.	.	4d
=122	=122	=122	=122
0AA	1F	2A	1c
.	.	1c	.
.	2E	.	1r
.	2C	4B-y	.
.	.	4A	.
=123	=123	=123	=123
1C	1c	2G	1e
.	.	2A	.
2D	2B-y	2.F	2f
[2F	4A	.	[2a
.	4G	4G	.
=124	=124	=124	=124
2F]	2F	4A	2a]
.	.	4B-y	.
4E	1G	2.c	4g
4D	.	.	4f
2C	.	.	2e
.	.	4B-y	.
2D	2F	[2A	[2f
=125	=125	=125	=125
1BB-y	1D	4A]	4f]
.	.	4F	4e
.	.	2G	1d
1AA	1E	1A	.
.	.	.	2c#i
=126	=126	=126	=126
0r	0D	0F	1d
.	.	.	1a
=127	=127	=127	=127
0r	0r	1d	1.b-y
.	.	[1e-i	.
.	.	.	2a
=128	=128	=128	=128
0r	0r	2e-]	2g
.	.	2d	2f
.	.	2c	4g
.	.	.	4a
.	.	2B-y	4b-y
.	.	.	4g
=129	=129	=129	=129
1r	0A	1c	2a
.	.	.	1g
1D	.	[1d	.
.	.	.	2f#i
=130	=130	=130	=130
1.G	1.B-y	2d]	1g
.	.	2B-y	.
.	.	2B-y	1r
2F	2A	[2c	.
=131	=131	=131	=131
2E	2G	4c]	2r
.	.	4B-y	.
2D	2F	1B-y	2dd
1C	2G	.	[1ee-i
.	4F	2A	.
.	4E	.	.
=132	=132	=132	=132
1BB-y	1F	1B-y	2ee-]
.	.	.	2dd
2E-i	2G	2r	2cc
2D	[2B-y	2d	2b-y
=133	=133	=133	=133
1C	2B-]	1.e-i	1cc
.	2A	.	.
1BB-y	1B-y	.	2.f
.	.	2d	.
.	.	.	4g
=134	=134	=134	=134
0r	2r	2c	2a
.	2d	2B-y	1b-y
.	[1e-i	1c	.
.	.	.	2a
=135	=135	=135	=135
1G	2e-]	1B-y	1b-y
.	2d	.	.
2A	2c	1r	2r
2G	2B-y	.	2g
=136	=136	=136	=136
2F	0c	2r	2a
2E	.	2G	2g
1F	.	1A	1f
=137	=137	=137	=137
1BB-y	1d	2G	1b-y
.	.	2F	.
1E-i	2B-y	[1G	2g
.	[2e-i	.	[2cc
=138	=138	=138	=138
2C	2e-]	2G]	2cc]
2D	1d	2F	2.b-y
2E	.	2G	.
.	.	.	4a
2F	2c	2A	2a
=139	=139	=139	=139
1BB-y	1d	1F	[0b-y
[1E-i	1r	[1G	.
=140	=140	=140	=140
1E-]	0B-y	1G]	0b-]
1E-i	.	1G	.
=141	=141	=141	=141
1.D	1B-y	2.F	0r
.	.	4G	.
.	[1A	4A	.
.	.	4B-y	.
2C	.	4c	.
.	.	4A	.
=142	=142	=142	=142
2D	2A]	2.B-y	0r
2E	2G	.	.
.	.	4c	.
2F	2A	1d	.
2G	2B-y	.	.
=143	=143	=143	=143
1E	1c	0r	0r
2D	1B-y	.	.
[2G	.	.	.
=144	=144	=144	=144
2G]	2A	1r	0r
2F	1d	.	.
2G	.	[1e	.
[2A	[2c	.	.
=145	=145	=145	=145
2A]	2c]	1e]	0r
2G	2B-y	.	.
2A	2c	1e	.
[2G	[2B-y	.	.
=146	=146	=146	=146
2G]	2B-]	1.d	0r
2F	2A	.	.
2.E	2.G	.	.
.	.	2c	.
4C	4A	.	.
=147	=147	=147	=147
2G	2B-y	2d	0b-y
2E-X	4A	2r	.
.	4G	.	.
1B-y	1d	1f	.
=148	=148	=148	=148
2.E-i	2r	1e-X	0b-y
.	2G	.	.
4F	.	.	.
2.G	2B-y	[1d	.
.	4A	.	.
4F	4G	.	.
=149	=149	=149	=149
2D	2.F	2d]	1.a
1F	.	2c	.
.	4G	.	.
.	4A	2d	.
.	4B-y	.	.
2E	[2c	2e	2g
=150	=150	=150	=150
1D	2c]	1f	2a
.	2F	.	2b-y
2.C	2G	1e	1cc
.	2A	.	.
4BB-y	.	.	.
=151	=151	=151	=151
2GG	2B-y	1d	1b-y
2BB-y	1G	.	.
2C	.	1r	1a
2D	2F#i	.	.
=152	=152	=152	=152
1.E	1.G	1B-y	1r
.	.	2c	2r
2D	[2A	2d	2f
=153	=153	=153	=153
2.C	4A]	2e-i	1g
.	4G	.	.
.	1G	2d	.
4BB-y	.	.	.
1AA	.	1c	1a
.	2F#i	.	.
=154	=154	=154	=154
2GG	1G	2r	1b-y
1G	.	2B-y	.
.	2r	2c	1a
2F	2A	2d	.
=155	=155	=155	=155
4G	1B-y	4e-i	2g
4F	.	4d	.
4E	.	1d	1b-y
4D	.	.	.
1E	1G	.	.
.	.	2c#i	4a
.	.	.	4g
=156	=156	=156	=156
0D	0A	1d	0f
.	.	2r	.
.	.	[2d	.
=157	=157	=157	=157
0r	0r	2d]	2r
.	.	2c	1a
.	.	1e	.
.	.	.	2g
=158	=158	=158	=158
0r	0r	1d	0b-y
.	.	2G	.
.	.	[2d	.
=159	=159	=159	=159
0r	2r	2d]	1a
.	1A	2c	.
.	.	2.B-y	2d
.	2G	.	[2g
.	.	4c	.
=160	=160	=160	=160
1r	1B-y	2d	4g]
.	.	.	4f
.	.	4c	2d
.	.	4B-y	.
2r	1A	2c	2e
[2D	.	2d	[2f
=161	=161	=161	=161
2D]	2D	2B-y	2f]
2C	2.A	2.c	1e
1E	.	.	.
.	4G	4B-y	.
.	[2G	2G	2c
=162	=162	=162	=162
1D	2G]	1A	1d
.	2F	.	.
2GG	2E	2G	1r
[2D	2D	2F	.
=163	=163	=163	=163
2D]	1E	2G	1r
2C	.	2.A	.
1BB-y	2.D	.	2r
.	.	4F	.
.	.	2G	[2dd
.	4E	.	.
=164	=164	=164	=164
2.AA	2F	1A	2dd]
.	2.E	.	2cc
4BB-y	.	.	.
1C	.	[1G	1ee
.	4C	.	.
.	[2c	.	.
=165	=165	=165	=165
1GG	2c]	2G]	1dd
.	2B-y	1d	.
1r	2.e-i	.	[1g
.	.	2c	.
.	4d	.	.
=166	=166	=166	=166
1r	1c	1e	1g]
2r	[1B-y	1d	2.g
[2G	.	.	.
.	.	.	4f
=167	=167	=167	=167
2G]	2B-]	2G	4d
.	.	.	4e
2F	2.A	1d	1f
1A	.	.	.
.	4B-y	.	.
.	[2c	2c	2e
=168	=168	=168	=168
0G	2c]	1e	2.g
.	4B-y	.	.
.	4A	.	4f
.	2.B-y	4d	4g
.	.	4G	4a
.	.	4.d	2b-y
.	4A	.	.
.	.	8c	.
=169	=169	=169	=169
2C	2c	1e	2.g
1G	2.B-y	.	.
.	.	.	4a
.	.	[1d	2b-y
.	4G	.	.
2F	2A	.	2a
=170	=170	=170	=170
2G	2B-y	2d]	2d
2E	2G	2c	1g
1D	2.A	4.d	.
.	.	8c	.
.	.	2A	2f
.	8GL	.	.
.	8FJ	.	.
=171	=171	=171	=171
2C	2G	2c	2e
2D	2F	1A	2d
1BB-y	2.D	.	2f
.	.	2G	4e
.	4E	.	4d
=172	=172	=172	=172
2AA	2F	2A	4c
.	.	.	4A
2GG	2G	2B-y	1d
1AA	1E	1A	.
.	.	.	2c#i
=173	=173	=173	=173
1A	0D	1F	0d
2B-y	.	2r	.
2F	.	2d	.
=174	=174	=174	=174
1G	0r	2e-i	1r
.	.	2B-y	.
1A	.	2.c	2r
.	.	.	2a
.	.	8B-yL	.
.	.	8cJ	.
=175	=175	=175	=175
2G	2r	2d	2b-y
2F	2d	2A	2f
2E	2e-i	1B-y	1g
[2G	2B-y	.	.
=176	=176	=176	=176
2G]	2c	1A	2.a
2F	2.d	.	.
.	.	.	4f
1E	.	1r	1g
.	4B-y	.	.
.	2c	.	.
=177	=177	=177	=177
0D	[0d	1A	1f
.	.	2B-y	2r
.	.	2F	2a
=178	=178	=178	=178
1r	0d]	2G	2b-y
.	.	2.B-y	2f
2r	.	.	2g
.	.	4A	.
2D	.	2F	[2a
=179	=179	=179	=179
2E-i	1r	1G	4a]
.	.	.	4g
2BB-y	.	.	1g
2C	2r	2.A	.
2D	2d	.	2f
.	.	4B-y	.
=180	=180	=180	=180
2C	2e-i	2c	2a
2BB-y	2B-y	2d	1g
1AA	1c	2e	.
.	.	4d	2f#i
.	.	4c	.
=181	=181	=181	=181
2GG	1d	2B-y	2g
2D	.	2A	2f
2E	1r	2G	2.b-y
2BB-y	.	2d	.
.	.	.	4g
=182	=182	=182	=182
1C	1r	1e	2a
.	.	.	1g
1D	1A	[1d	.
.	.	.	2f
=183	=183	=183	=183
1BB-y	2B-y	2d]	4g
.	.	.	4f
.	2F	2d	2.b-y
1r	1G	2e-i	.
.	.	.	4a
.	.	2B-y	[2g
=184	=184	=184	=184
1r	1A	1c	2g]
.	.	.	4f#i
.	.	.	4e
1D	1A	1d	1f#i
=185	=185	=185	=185
2E-i	[0Gl	2r	0g
2BB-y	.	2d	.
2C	.	2e-i	.
[2E-i	.	2B-y	.
=186	=186	=186	=186
4E-]	0G_	2c	2r
4D	.	.	.
2BB-y	.	1d	2d
1C	.	.	1e-X
.	.	2c	.
=187	=187	=187	=187
2.GG	0G_	2e-i	2.B-y
.	.	1d	.
4AA	.	.	4c
2BB-y	.	.	2d
[2C	.	2c	2e-i
=188	=188	=188	=188
2C]	0G_	2e-i	2c
2BB-y	.	2d	2d
1C	.	1c	1e-i
=189	=189	=189	=189
00GGl	00G]	00B-yl	00dl
==	==	==	==
*-	*-	*-	*-
!!!system-decoration: [*]
!!!RDF**kern: i = editorial accidental
!!!RDF**kern: l = terminal long
!!!ENC: Benjamin Ory
!!!END: 2022/3/28
!!!EED: Benjamin Ory
!!!EEV: 2022/03/28
!!!YEC: Copyright 2022 Benjamin Ory, All Rights Reserved
!!!ONB: Translated from MusicXML on 2022/03/28
